!!!COM: Marcello, Benedetto
!!!OPR: Concerto in F Major
!!!OTL:
!!!ONM: Opus 1, No. 8
!!!OMV: 1
!!!SCT: 
!!!YOR: RISM M 443, I Vnm (Biblioteca Nazionale Marciana)
!!!EED: Frances Bennion
!!!ENC: Frances Bennion
!!!CDT: 1686/1/8/-1739/7/24/
!!!OCY: Italia
!!!YEC: Copyright (c) 1994, 2000 Center for Computer Assisted Research in the Humanities
!!!YEM: Rights to all derivative editions reserved.
!!!YEM: Refer to licensing agreement for further details.
!!!YEN: United States of America
**kern	**dynam	**kern	**dynam	**kern	**dynam	**kern	**dynam	**kern	**dynam	**kern
*I:Violino Principale	*I:Violino Principale	*I:Violino Primo	*I:Violino Primo	*I:Violino Secondo	*I:Violino Secondo	*I:Alto Viola	*I:Alto Viola	*I:Violoncello	*I:Violoncello	*I:Organo
*clefG2	*	*clefG2	*	*clefG2	*	*clefC3	*	*clefF4	*	*clefF4
*k[b-]	*	*k[b-]	*	*k[b-]	*	*k[b-]	*	*k[b-]	*	*k[b-]
*F:	*	*F:	*	*F:	*	*F:	*	*F:	*	*F:
*M4/4	*	*M4/4	*	*M4/4	*	*M4/4	*	*M4/4	*	*M4/4
! Allegro e Vivace	!	!	!	!	!	!	!	!	!	!
=1-	=1-	=1-	=1-	=1-	=1-	=1-	=1-	=1-	=1-	=1-
1r	.	8f/L	.	8f/L	.	8f\L	.	1r	.	1r
.	.	8f/J	.	8f/	.	8f\	.	.	.	.
.	.	8cc\L	.	8cc/	.	8cc\	.	.	.	.
.	.	8cc\J	.	8cc/J	.	8cc\J	.	.	.	.
.	.	8a/L	.	8a/L	.	8a\L	.	.	.	.
.	.	16g/L	.	16g/L	.	16g\L	.	.	.	.
.	.	16a/JJ	.	16a/JJ	.	16a\JJ	.	.	.	.
.	.	8f/L	.	8f/L	.	8f\L	.	.	.	.
.	.	8cc/J	.	8cc/J	.	8e\J	.	.	.	.
=2	=2	=2	=2	=2	=2	=2	=2	=2	=2	=2
1r	.	8ff\L	.	8ff\L	.	8d\L	.	1r	.	1r
.	.	8ff\	.	8ff\	.	8c\J	.	.	.	.
.	.	8ff\	.	8ff\	.	8Bn/L	.	.	.	.
.	.	8ff\J	.	8ff\J	.	8G/J	.	.	.	.
.	.	8ee\L	.	8ee\L	.	4c\	.	.	.	.
.	.	16dd\L	.	16dd\L	.	.	.	.	.	.
.	.	16ee\JJ	.	16ee\JJ	.	.	.	.	.	.
.	.	8cc/L	.	8cc/L	.	8r	.	.	.	.
.	.	8c/J	.	8c/J	.	8c\	.	.	.	.
=3	=3	=3	=3	=3	=3	=3	=3	=3	=3	=3
1r	.	8d/L	.	8d/L	.	8d\L	.	1r	.	1r
.	.	16e/L	.	16e/L	.	16e\L	.	.	.	.
.	.	16f/JJ	.	16f/JJ	.	16f\JJ	.	.	.	.
.	.	8g/L	.	8g/L	.	8g\L	.	.	.	.
.	.	8g/J	.	8g/J	.	8g\J	.	.	.	.
.	.	8c/L	.	8c/L	.	8c\L	.	.	.	.
.	.	16d/L	.	16d/L	.	16d\L	.	.	.	.
.	.	16e/JJ	.	16e/JJ	.	16e\JJ	.	.	.	.
.	.	8f/L	.	8f/L	.	8f\L	.	.	.	.
.	.	8a/J	.	8a/J	.	8a\J	.	.	.	.
=4	=4	=4	=4	=4	=4	=4	=4	=4	=4	=4
2r	.	8b-/L	.	8b-/L	.	8b-\L	.	2r	.	1r
.	.	8g/	.	8g/	.	8g\	.	.	.	.
.	.	8cc/	.	8cc/	.	8cc\	.	.	.	.
.	.	8c/J	.	8c/J	.	8c\J	.	.	.	.
16f/LL	.	4f/	.	4f/	.	4f\	.	8FF/L	.	.
16g/	.	.	.	.	.	.	.	.	.	.
16a/	.	.	.	.	.	.	.	8F/	.	.
16b-/JJ	.	.	.	.	.	.	.	.	.	.
8cc\L	.	4r	.	4r	.	4r	.	8E/	.	.
8cc\J	.	.	.	.	.	.	.	8C/J	.	.
=5	=5	=5	=5	=5	=5	=5	=5	=5	=5	=5
8a/L	.	1r	.	1r	.	1r	.	4.F\	.	1r
16g/L	.	.	.	.	.	.	.	.	.	.
16a/JJ	.	.	.	.	.	.	.	.	.	.
8f/L	.	.	.	.	.	.	.	.	.	.
8cc/J	.	.	.	.	.	.	.	8E\	.	.
8ff\L	.	.	.	.	.	.	.	8D/L	.	.
8ff\	.	.	.	.	.	.	.	8C/	.	.
8ff\	.	.	.	.	.	.	.	8BBn/	.	.
8ff\J	.	.	.	.	.	.	.	8GG/J	.	.
=6	=6	=6	=6	=6	=6	=6	=6	=6	=6	=6
8ee\L	.	4r	.	4r	.	4r	.	4.C/	.	4r
16dd\L	.	.	.	.	.	.	.	.	.	.
16ee\JJ	.	.	.	.	.	.	.	.	.	.
4cc\	.	8r	.	8r	.	8r	.	.	.	8r
.	.	8c/	.	8c/	.	8c\	.	8C/	.	8C/
2r	.	8d/L	.	8d/L	.	8d\L	.	8D\L	.	8D\L
.	.	16e/L	.	16e/L	.	16e\L	.	16E\L	.	16E\L
.	.	16f/JJ	.	16f/JJ	.	16f\JJ	.	16F\JJ	.	16F\JJ
.	.	8g/L	.	8g/L	.	8g\L	.	8G\L	.	8G\L
.	.	8g/J	.	8g/J	.	8g\J	.	8G\J	.	8G\J
=7	=7	=7	=7	=7	=7	=7	=7	=7	=7	=7
1r	.	8c/L	.	8c/L	.	8c\L	.	8C\L	.	8C\L
.	.	16d/L	.	16d/L	.	16d\L	.	16D\L	.	16D\L
.	.	16e/JJ	.	16e/JJ	.	16e\JJ	.	16E\JJ	.	16E\JJ
.	.	8f/L	.	8f/L	.	8f\L	.	8F\L	.	8F\L
.	.	8a/J	.	8a/J	.	8a\J	.	8A\J	.	8A\J
.	.	8b-/L	.	8b-/L	.	8b-\L	.	8B-\L	.	8B-\L
.	.	8g/	.	8g/J	.	8g\	.	8G\	.	8G\
.	.	8cc/	.	8cc/L	.	8cc\	.	8c\	.	8c\
.	.	8c/J	.	8c/J	.	8c\J	.	8C\J	.	8C\J
=8	=8	=8	=8	=8	=8	=8	=8	=8	=8	=8
16f/LL	p	4f/	.	4f/	.	4f\	.	8FF/L	.	4F\
16g/	.	.	.	.	.	.	.	.	.	.
16a/	.	.	.	.	.	.	.	8F/	.	.
16b-/JJ	.	.	.	.	.	.	.	.	.	.
8cc\L	.	4r	.	4r	.	4r	.	8E/	.	4r
8cc\J	.	.	.	.	.	.	.	8C/J	.	.
8a/L	.	2r	.	2r	.	2r	.	4.F\	.	2r
16g/L	.	.	.	.	.	.	.	.	.	.
16a/JJ	.	.	.	.	.	.	.	.	.	.
8f/L	.	.	.	.	.	.	.	.	.	.
8cc/J	.	.	.	.	.	.	.	8E\	.	.
=9	=9	=9	=9	=9	=9	=9	=9	=9	=9	=9
16ff\LL	.	1r	.	1r	.	1r	.	8D/L	.	1r
16ee\	.	.	.	.	.	.	.	.	.	.
16ff\	.	.	.	.	.	.	.	8C/	.	.
16gg\JJ	.	.	.	.	.	.	.	.	.	.
16ff\LL	.	.	.	.	.	.	.	8BBn/	.	.
16gg\	.	.	.	.	.	.	.	.	.	.
16ff\	.	.	.	.	.	.	.	8GG/J	.	.
16gg\JJ	.	.	.	.	.	.	.	.	.	.
8ee\L	.	.	.	.	.	.	.	4.C/	.	.
16dd\L	.	.	.	.	.	.	.	.	.	.
16ee\JJ	.	.	.	.	.	.	.	.	.	.
8cc\L	.	.	.	.	.	.	.	.	.	.
8cc\J	.	.	.	.	.	.	.	8c\	.	.
=10	=10	=10	=10	=10	=10	=10	=10	=10	=10	=10
8dd\L	.	1r	.	1r	.	1r	.	8c\L	.	1r
16ee\L	.	.	.	.	.	.	.	16B-\L	.	.
16ff\JJ	.	.	.	.	.	.	.	16A\JJ	.	.
16gg\LL	.	.	.	.	.	.	.	8B-\L	.	.
16ff\	.	.	.	.	.	.	.	.	.	.
16gg\	.	.	.	.	.	.	.	8B-\J	.	.
16ee\JJ	.	.	.	.	.	.	.	.	.	.
8cc\L	.	.	.	.	.	.	.	8B-\L	.	.
16dd\L	.	.	.	.	.	.	.	16A\L	.	.
16ee\JJ	.	.	.	.	.	.	.	16G\JJ	.	.
[4ff\	.	.	.	.	.	.	.	8A\L	.	.
.	.	.	.	.	.	.	.	8F\J	.	.
=11	=11	=11	=11	=11	=11	=11	=11	=11	=11	=11
16ff\LL]	.	2r	.	2r	.	2r	.	8B-\L	.	1r
16ee\	.	.	.	.	.	.	.	.	.	.
16ff\	.	.	.	.	.	.	.	8G\	.	.
16gg\JJ	.	.	.	.	.	.	.	.	.	.
8.ee\L	.	.	.	.	.	.	.	8c\	.	.
.	.	.	.	.	.	.	.	8C\J	.	.
16ff\Jk	.	.	.	.	.	.	.	.	.	.
4ff\	.	8a\L	.	8cc\L	.	8f\L	p	8FF\L	.	.
.	.	8a\	.	8cc\	.	8f\	.	8F\	.	.
16r	.	8dd\	.	8a\	.	8f\	.	8F\	.	.
16aa\LL	.	.	.	.	.	.	.	.	.	.
16bb-\	.	8dd\J	.	8a\J	.	8f\J	.	8F\J	.	.
16aa\JJ	.	.	.	.	.	.	.	.	.	.
=12	=12	=12	=12	=12	=12	=12	=12	=12	=12	=12
16gg\LL	.	8dd\L	.	8b-/L	.	8f\L	.	8F\L	.	1r
16bb-\J	.	.	.	.	.	.	.	.	.	.
8ccc\J	.	8cc\	.	8g/	.	8f\	.	8F\	.	.
16r	.	8cc\	.	8g/	.	8e\	.	8E\	.	.
16gg\LL	.	.	.	.	.	.	.	.	.	.
16aa\	.	8cc\J	.	8g/J	.	8e\J	.	8E\J	.	.
16gg\JJ	.	.	.	.	.	.	.	.	.	.
16ff\LL	.	8cc\L	.	8a/L	.	8e\L	.	8E\L	.	.
16aa\J	.	.	.	.	.	.	.	.	.	.
8bb-\J	.	8b-\	.	8f/	.	8e\	.	8E\	.	.
16r	.	8b-\	.	8f/	.	8d\	.	8D\	.	.
16ff\LL	.	.	.	.	.	.	.	.	.	.
16gg\	.	8b-\J	.	8f/J	.	8d\J	.	8D\J	.	.
16ff\JJ	.	.	.	.	.	.	.	.	.	.
=13	=13	=13	=13	=13	=13	=13	=13	=13	=13	=13
16ee\LL	.	8b-/L	.	8g/L	.	8d\L	.	8D/L	.	1r
16gg\J	.	.	.	.	.	.	.	.	.	.
8aa\J	.	8a/	.	8e/	.	8d\	.	8D/	.	.
16r	.	8a/	.	8e/	.	8c\	.	8C/	.	.
16ee\LL	.	.	.	.	.	.	.	.	.	.
16ff\	.	8a/J	.	8e/J	.	8c\J	.	8C/J	.	.
16ee\JJ	.	.	.	.	.	.	.	.	.	.
16dd\LL	.	8a/L	.	8f/L	.	8c/L	.	8C/L	.	.
16ff\J	.	.	.	.	.	.	.	.	.	.
8gg\J	.	8g/	.	8d/	.	8c/	.	8C/	.	.
16r	.	8g/	.	8d/	.	8Bn/	.	8BBn/	.	.
16dd\LL	.	.	.	.	.	.	.	.	.	.
16gg\	.	8g/J	.	8d/J	.	8B/J	.	8BB/J	.	.
16dd\JJ	.	.	.	.	.	.	.	.	.	.
=14	=14	=14	=14	=14	=14	=14	=14	=14	=14	=14
16ee\LL	.	4g/	.	4c/	.	4c\	.	8C/L	.	1r
16dd\J	.	.	.	.	.	.	.	.	.	.
8cc\J	.	.	.	.	.	.	.	16C/L	.	.
.	.	.	.	.	.	.	.	16D/JJ	.	.
8r	.	4r	.	4r	.	4r	.	8E\L	.	.
8cc\	.	.	.	.	.	.	.	8E\J	.	.
16cc\LL	.	2r	.	2r	.	2r	.	8F\L	.	.
16bn\	.	.	.	.	.	.	.	.	.	.
16cc\	.	.	.	.	.	.	.	8E\	.	.
16ee\JJ	.	.	.	.	.	.	.	.	.	.
16dd\LL	.	.	.	.	.	.	.	8F\	.	.
16b\	.	.	.	.	.	.	.	.	.	.
16cc\	.	.	.	.	.	.	.	8E\J	.	.
16ee\JJ	.	.	.	.	.	.	.	.	.	.
=15	=15	=15	=15	=15	=15	=15	=15	=15	=15	=15
16dd\LL	.	1r	.	1r	.	1r	.	8F\L	.	1r
16bn\J	.	.	.	.	.	.	.	.	.	.
8cc\J	.	.	.	.	.	.	.	8E\J	.	.
16r	.	.	.	.	.	.	.	8r	.	.
16gg\LL	.	.	.	.	.	.	.	.	.	.
16aa\	.	.	.	.	.	.	.	8F\	.	.
16cc\JJ	.	.	.	.	.	.	.	.	.	.
16b\LL	.	.	.	.	.	.	.	8G\L	.	.
16g\	.	.	.	.	.	.	.	.	.	.
16cc\	.	.	.	.	.	.	.	16E\L	.	.
16dd\JJ	.	.	.	.	.	.	.	16F\JJ	.	.
8.b\L	.	.	.	.	.	.	.	8G/L	.	.
.	.	.	.	.	.	.	.	8GG/J	.	.
16cc\Jk	.	.	.	.	.	.	.	.	.	.
=16	=16	=16	=16	=16	=16	=16	=16	=16	=16	=16
4cc\	.	8c/L	.	8c/L	.	8c\L	f	4C/	.	8E\L
.	.	8c/	.	8c/	.	8c\	.	.	.	8c\
4r	.	8g/	.	8g/	.	8g\	.	4r	.	8Bn\
.	.	8g/J	.	8g/J	.	8g\J	.	.	.	8G\J
2r	.	8e/L	.	8e/L	.	8e\L	.	2r	.	4.c\
.	.	16d/L	.	16d/L	.	16d\L	.	.	.	.
.	.	16e/JJ	.	16e/JJ	.	16e\JJ	.	.	.	.
.	.	8c/L	.	8c/L	.	8c\L	.	.	.	.
.	.	8g/J	.	8g/J	.	8c\J	.	.	.	8c\
=17	=17	=17	=17	=17	=17	=17	=17	=17	=17	=17
1r	.	8cc\L	.	8cc\L	.	8A\L	.	1r	.	4A\
.	.	8cc\	.	8cc\	.	8a\	.	.	.	.
!	!	!	!	!	!	!	!	!	!	! **Bnum:._#
.	.	8cc\	.	8cc\	.	8f#\	.	.	.	4D\
.	.	8cc\J	.	8cc\J	.	8d\J	.	.	.	.
.	.	8bn\L	.	8bn\L	.	4g\	.	.	.	4G\
.	.	16a\L	.	16a\L	.	.	.	.	.	.
.	.	16b\JJ	.	16b\JJ	.	.	.	.	.	.
.	.	4g/	.	4g/	.	4r	.	.	.	4r
=18	=18	=18	=18	=18	=18	=18	=18	=18	=18	=18
16cc\LL	.	1r	.	1r	.	1r	.	8C\L	.	1r
16dd\	.	.	.	.	.	.	.	.	.	.
16ee\	.	.	.	.	.	.	.	8c\	.	.
16ff\JJ	.	.	.	.	.	.	.	.	.	.
8gg\L	.	.	.	.	.	.	.	8Bn\	.	.
8gg\J	.	.	.	.	.	.	.	8G\J	.	.
16ee\LL	.	.	.	.	.	.	.	4.c\	.	.
16dd\J	.	.	.	.	.	.	.	.	.	.
8ee\J	.	.	.	.	.	.	.	.	.	.
8cc\L	.	.	.	.	.	.	.	.	.	.
8gg\J	.	.	.	.	.	.	.	8Bn\	.	.
=19	=19	=19	=19	=19	=19	=19	=19	=19	=19	=19
8ccc\L	.	1r	.	1r	.	1r	.	8A\L	.	1r
8ccc\	.	.	.	.	.	.	.	8G\	.	.
8ccc\	.	.	.	.	.	.	.	8F#\	.	.
8ccc\J	.	.	.	.	.	.	.	8D\J	.	.
8bbn\L	.	.	.	.	.	.	.	8G\L	.	.
16aa\L	.	.	.	.	.	.	.	8Fn\xx	.	.
16bb\JJ	.	.	.	.	.	.	.	.	.	.
4gg\	.	.	.	.	.	.	.	8E\	.	.
.	.	.	.	.	.	.	.	8C\J	.	.
=20	=20	=20	=20	=20	=20	=20	=20	=20	=20	=20
1r	.	1r	.	1r	.	1r	.	16F\LL	.	16F\LL
.	.	.	.	.	.	.	.	16G\	.	16G\
.	.	.	.	.	.	.	.	16A\	.	16A\
.	.	.	.	.	.	.	.	16B-\JJ	.	16B-\JJ
.	.	.	.	.	.	.	.	8c\L	.	8c\L
.	.	.	.	.	.	.	.	8c\J	.	8c\J
.	.	.	.	.	.	.	.	8A\L	.	8A\L
.	.	.	.	.	.	.	.	16G\L	.	16G\L
.	.	.	.	.	.	.	.	16A\JJ	.	16A\JJ
.	.	.	.	.	.	.	.	8F\L	.	8F\L
.	.	.	.	.	.	.	.	8c\J	.	8c\J
=21	=21	=21	=21	=21	=21	=21	=21	=21	=21	=21
1r	.	1r	.	1r	.	1r	.	8F\L	.	8F\L
.	.	.	.	.	.	.	.	8F\	.	8F\
.	.	.	.	.	.	.	.	8F\	.	8F\
.	.	.	.	.	.	.	.	8F\J	.	8F\J
.	.	.	.	.	.	.	.	8E\L	.	8E\L
.	.	.	.	.	.	.	.	16D\L	.	16D\L
.	.	.	.	.	.	.	.	16E\JJ	.	16E\JJ
.	.	.	.	.	.	.	.	4C/	.	4C/
=22	=22	=22	=22	=22	=22	=22	=22	=22	=22	=22
16f/LL	.	1r	.	1r	.	1r	.	8FF/L	.	1r
16g/	.	.	.	.	.	.	.	.	.	.
16a/	.	.	.	.	.	.	.	8F/	.	.
16b-/JJ	.	.	.	.	.	.	.	.	.	.
8cc\L	.	.	.	.	.	.	.	8E/	.	.
8cc\J	.	.	.	.	.	.	.	8C/J	.	.
8a/L	.	.	.	.	.	.	.	4.F\	.	.
16g/L	.	.	.	.	.	.	.	.	.	.
16a/JJ	.	.	.	.	.	.	.	.	.	.
8f/L	.	.	.	.	.	.	.	.	.	.
8cc/J	.	.	.	.	.	.	.	8E\	.	.
=23	=23	=23	=23	=23	=23	=23	=23	=23	=23	=23
8ff\L	.	1r	.	1r	.	1r	.	8D/L	.	1r
8ff\	.	.	.	.	.	.	.	8C/	.	.
8ff\	.	.	.	.	.	.	.	8BBn/	.	.
8ff\J	.	.	.	.	.	.	.	8GG/J	.	.
8ee\L	.	.	.	.	.	.	.	4.C/	.	.
16dd\L	.	.	.	.	.	.	.	.	.	.
16ee\JJ	.	.	.	.	.	.	.	.	.	.
4cc\	.	.	.	.	.	.	.	.	.	.
.	.	.	.	.	.	.	.	8c\	.	.
=24	=24	=24	=24	=24	=24	=24	=24	=24	=24	=24
8dd\L	.	1r	.	1r	.	1r	.	8c\L	.	1r
16ee\L	.	.	.	.	.	.	.	16B-\L	.	.
16ff\JJ	.	.	.	.	.	.	.	16A\JJ	.	.
8gg\L	.	.	.	.	.	.	.	8B-\L	.	.
8gg\J	.	.	.	.	.	.	.	8B-\J	.	.
8cc\L	.	.	.	.	.	.	.	8B-\L	.	.
16dd\L	.	.	.	.	.	.	.	16A\L	.	.
16ee\JJ	.	.	.	.	.	.	.	16G\JJ	.	.
[4ff\	.	.	.	.	.	.	.	8A\L	.	.
.	.	.	.	.	.	.	.	8F\J	.	.
=25	=25	=25	=25	=25	=25	=25	=25	=25	=25	=25
16ff\LL]	.	2r	.	2r	.	2r	.	8B-\L	.	2r
16ee\	.	.	.	.	.	.	.	.	.	.
16ff\	.	.	.	.	.	.	.	8G\	.	.
16gg\JJ	.	.	.	.	.	.	.	.	.	.
8.ee\L	.	.	.	.	.	.	.	8c\	.	.
.	.	.	.	.	.	.	.	8C\J	.	.
16ff\Jk	.	.	.	.	.	.	.	.	.	.
!	!	!	!	!	!	!	!	!	!	! **Bnum:._5
4ff\	.	4r	.	8cc\L	.	8a\L	.	8F\L	.	8F\L
.	.	.	.	8cc\	.	8a\	.	8F\	.	8F\
!	!	!	!	!	!	!	!	!	!	! **Bnum:._6
4r	.	16r	.	8dd\	.	8a\	.	8F\	.	8F\
.	.	16aa\LL	.	.	.	.	.	.	.	.
.	.	16bb-\	.	8dd\J	.	8a\J	.	8F\J	.	8F\J
.	.	16aa\JJ	.	.	.	.	.	.	.	.
=26	=26	=26	=26	=26	=26	=26	=26	=26	=26	=26
1r	.	16gg\LL	.	8dd\L	.	8b-\L	.	8F\L	.	8F\L
.	.	16bb-\J	.	.	.	.	.	.	.	.
!	!	!	!	!	!	!	!	!	!	! **Bnum:._5
.	.	8ccc\J	.	8cc\	.	8g\	.	8F\	.	8F\
!	!	!	!	!	!	!	!	!	!	! **Bnum:._6
.	.	16r	.	8cc\	.	8g\	.	8E\	.	8E\
.	.	16gg\LL	.	.	.	.	.	.	.	.
.	.	16aa\	.	8cc\J	.	8g\J	.	8E\J	.	8E\J
.	.	16gg\JJ	.	.	.	.	.	.	.	.
!	!	!	!	!	!	!	!	!	!	! **Bnum:._7
.	.	16ff\LL	.	8cc\L	.	8a\L	.	8D\L	.	8D\L
.	.	16aa\J	.	.	.	.	.	.	.	.
.	.	8bb-\J	.	8cc\	.	8f\	.	8D\	.	8D\
!	!	!	!	!	!	!	!	!	!	! **Bnum:._6n
.	.	16r	.	8bn\	.	8f\	.	8D\	.	8D\
.	.	16ff\LL	.	.	.	.	.	.	.	.
.	.	16gg\	.	8b\J	.	8f\J	.	8D\J	.	8D\J
.	.	16ff\JJ	.	.	.	.	.	.	.	.
=27	=27	=27	=27	=27	=27	=27	=27	=27	=27	=27
4r	.	4ee\	.	4cc\	.	4g\	.	8C\L	.	8C\L
.	.	.	.	.	.	.	.	8c\	.	8c\
8r	.	8r	.	8r	.	8r	.	8A\	.	8A\
8cc\	.	8cc\	p	8a/	p	8f\	p	8F\J	.	8F\J
!	!	!	!	!	!	!	!	!	!	! **Bnum:4_5
!	!	!	!	!	!	!	!	!	!	! **Bnum:._6
16dd\LL	.	8dd\L	.	8f/L	.	4f\	.	4BB-/	.	4BB-/
16cc\	.	.	.	.	.	.	.	.	.	.
16b-\	.	8dd\	.	8f/	.	.	.	.	.	.
16cc\JJ	.	.	.	.	.	.	.	.	.	.
16dd\LL	.	8dd\	.	8g/	.	4r	.	4r	.	4r
16ee\	.	.	.	.	.	.	.	.	.	.
16ff\	.	8dd\J	.	8g/J	.	.	.	.	.	.
16gg\JJ	.	.	.	.	.	.	.	.	.	.
=28	=28	=28	=28	=28	=28	=28	=28	=28	=28	=28
!	!	!	!	!	!	!	!	!	!	! **Bnum:4_5
!	!	!	!	!	!	!	!	!	!	! **Bnum:._6
16ee\LL	.	8ee\L	.	8g/L	.	4e\	.	4C/	.	4C/
16dd\	.	.	.	.	.	.	.	.	.	.
16cc\	.	8ee\	.	8g/	.	.	.	.	.	.
16dd\JJ	.	.	.	.	.	.	.	.	.	.
16ee\LL	.	8ee\	.	8a/	.	4r	.	4r	.	4r
16ff\	.	.	.	.	.	.	.	.	.	.
16gg\	.	8ee\J	.	8a/J	.	.	.	.	.	.
16aa\JJ	.	.	.	.	.	.	.	.	.	.
!	!	!	!	!	!	!	!	!	!	! **Bnum:4_5
!	!	!	!	!	!	!	!	!	!	! **Bnum:._6
16ff\LL	.	8ff\L	.	8a/L	.	4d\	.	4D/	.	4D\
16ee\	.	.	.	.	.	.	.	.	.	.
16dd\	.	8ff\	.	8a/	.	.	.	.	.	.
16ee\JJ	.	.	.	.	.	.	.	.	.	.
16ff\LL	.	8ff\	.	8b-/	.	4r	.	4r	.	4r
16gg\	.	.	.	.	.	.	.	.	.	.
16aa\	.	8ff\J	.	8b-/J	.	.	.	.	.	.
16bb-\JJ	.	.	.	.	.	.	.	.	.	.
=29	=29	=29	=29	=29	=29	=29	=29	=29	=29	=29
!	!	!	!	!	!	!	!	!	!	! **Bnum:4_5
!	!	!	!	!	!	!	!	!	!	! **Bnum:._6
16gg\LL	.	8gg\L	.	8b-\L	.	4c\	.	4E\	.	4E\
16ff\	.	.	.	.	.	.	.	.	.	.
16ee\	.	8gg\	.	8b-\	.	.	.	.	.	.
16ff\JJ	.	.	.	.	.	.	.	.	.	.
16gg\LL	.	8gg\	.	8cc\	.	4r	.	4r	.	4r
16aa\	.	.	.	.	.	.	.	.	.	.
16bb-\	.	8gg\J	.	8cc\J	.	.	.	.	.	.
16ccc\JJ	.	.	.	.	.	.	.	.	.	.
16aa\LL	.	4aa\	.	8cc\L	.	4f\	.	4F\	.	4F\
16gg\	.	.	.	.	.	.	.	.	.	.
16ff\	.	.	.	8cc\J	.	.	.	.	.	.
16ee\JJ	.	.	.	.	.	.	.	.	.	.
16dd\LL	.	4dd\	.	16b-/LL	.	4b-\	.	4G\	.	4G\
16ff\	.	.	.	16a/	.	.	.	.	.	.
16ee\	.	.	.	16g/	.	.	.	.	.	.
16dd\JJ	.	.	.	16f/JJ	.	.	.	.	.	.
=30	=30	=30	=30	=30	=30	=30	=30	=30	=30	=30
!	!	!	!	!	!	!	!	!	!	! **Bnum:._#
8cc#\L	.	8cc#\L	.	8e/L	.	8c#/L	.	4A\	.	4A\
8a\J	.	8a\	.	8e/	.	8A/	.	.	.	.
8r	.	8a\	.	8e/	.	8A/	.	4r	.	4r
8a/	.	8a\J	.	8e/J	.	8A/J	.	.	.	.
8bn\L	.	8a/L	.	8f/L	.	8A/L	.	2r	.	2r
16cc#\L	.	8a/	.	8f/	.	8A/	.	.	.	.
16dd\JJ	.	.	.	.	.	.	.	.	.	.
8ee\L	.	8g/	.	8g/	.	8G/	.	.	.	.
8ee\J	.	8g/J	.	8g/J	.	8G/J	.	.	.	.
=31	=31	=31	=31	=31	=31	=31	=31	=31	=31	=31
8a\L	.	8g/L	.	8c#/L	.	8G/L	.	1r	.	1r
16bn\L	.	8g/	.	8e/	.	8G/	.	.	.	.
16cc#\JJ	.	.	.	.	.	.	.	.	.	.
[4dd\	.	8f/	.	8a/	.	8F/	.	.	.	.
.	.	8f/J	.	8a/J	.	8f/J	.	.	.	.
16dd\LL]	.	8e/L	.	8b-/L	.	8g\L	.	.	.	.
16ee\	.	.	.	.	.	.	.	.	.	.
16ff\	.	8e/	.	8g/	.	8e\	.	.	.	.
16dd\JJ	.	.	.	.	.	.	.	.	.	.
8.cc#\L	.	8e/	.	8a/	.	8a\	.	.	.	.
.	.	8e/J	.	8A/J	.	8A\J	.	.	.	.
16dd\Jk	.	.	.	.	.	.	.	.	.	.
=32	=32	=32	=32	=32	=32	=32	=32	=32	=32	=32
4dd\	.	4d/	.	4d/	.	4d\	.	8D\L	.	8D\L
.	.	.	.	.	.	.	.	8D\	.	8D\
4r	.	4r	.	4r	.	4r	.	8A\	.	8A\
.	.	.	.	.	.	.	.	8A\J	.	8A\J
!	!	!	!	!	!	!	!	!	!	! **Bnum:._6
2r	.	2r	.	2r	.	2r	.	8F\L	.	8F\L
.	.	.	.	.	.	.	.	16E\L	.	16E\L
.	.	.	.	.	.	.	.	16F\JJ	.	16F\JJ
.	.	.	.	.	.	.	.	8D\L	.	8D\L
.	.	.	.	.	.	.	.	8A\J	.	8A\J
=33	=33	=33	=33	=33	=33	=33	=33	=33	=33	=33
2r	.	1r	.	1r	.	1r	.	8d\L	.	8d\L
.	.	.	.	.	.	.	.	8d\	.	8d\
.	.	.	.	.	.	.	.	8d\	.	8d\
.	.	.	.	.	.	.	.	8d\J	.	8d\J
4r	.	.	.	.	.	.	.	8c#\L	.	8c#\L
.	.	.	.	.	.	.	.	16Bn\L	.	16Bn\Lxx
.	.	.	.	.	.	.	.	16c#\JJ	.	16c#\JJ
8r	.	.	.	.	.	.	.	4A\	.	4A\
! Solo	!	!	!	!	!	!	!	!	!	!
8aa\	.	.	.	.	.	.	.	.	.	.
=34	=34	=34	=34	=34	=34	=34	=34	=34	=34	=34
16ff#\LL	.	8a/L	.	8f#/L	.	8d\L	.	1r	.	1r
16dd\	.	.	.	.	.	.	.	.	.	.
16ff#\	.	8a/	.	8f#/	.	8d\	.	.	.	.
16aa\JJ	.	.	.	.	.	.	.	.	.	.
16ff#\LL	.	8a/	.	8f#/	.	8d\	.	.	.	.
16dd\	.	.	.	.	.	.	.	.	.	.
16ff#\	.	8a/J	.	8f#/J	.	8d\J	.	.	.	.
16aa\JJ	.	.	.	.	.	.	.	.	.	.
16ff#\LL	.	8a/L	.	8f#/L	.	8d\L	.	.	.	.
16cc\	.	.	.	.	.	.	.	.	.	.
16ff#\	.	8a/	.	8f#/	.	8d\	.	.	.	.
16aa\JJ	.	.	.	.	.	.	.	.	.	.
16ff#\LL	.	8a/	.	8f#/	.	8d\	.	.	.	.
16cc\	.	.	.	.	.	.	.	.	.	.
16ff#\	.	8a/J	.	8f#/J	.	8d\J	.	.	.	.
16aa\JJ	.	.	.	.	.	.	.	.	.	.
=35	=35	=35	=35	=35	=35	=35	=35	=35	=35	=35
!	!	!	!	!	!	!	!	!	!	! **Bnum:._f
4b-\	.	4b-\	.	4g/	.	4G/	.	8GG/L	.	8G\L
.	.	.	.	.	.	.	.	8GG/	.	8G\
!	!	!	!	!	!	!	!	!	!	! **Bnum:._#
4r	.	4r	.	4r	.	4r	.	8D/	.	8d\
.	.	.	.	.	.	.	.	8D/J	.	8d\J
!	!	!	!	!	!	!	!	!	!	! **Bnum:._6
2r	.	2r	.	2r	.	2r	.	8BB-/L	.	8B-\L
.	.	.	.	.	.	.	.	16AA/L	.	16A\L
.	.	.	.	.	.	.	.	16BB-/JJ	.	16B-\JJ
.	.	.	.	.	.	.	.	8GG/L	.	8G\L
.	.	.	.	.	.	.	.	8D/J	.	8d\J
=36	=36	=36	=36	=36	=36	=36	=36	=36	=36	=36
2r	.	1r	.	1r	.	1r	.	8G\L	.	8G\L
.	.	.	.	.	.	.	.	8G\	.	8G\
.	.	.	.	.	.	.	.	8G\	.	8G\
.	.	.	.	.	.	.	.	8G\J	.	8G\J
4r	.	.	.	.	.	.	.	8F#\L	.	8F#\L
.	.	.	.	.	.	.	.	16E\L	.	16E\L
.	.	.	.	.	.	.	.	16F#\JJ	.	16F#\JJ
8r	.	.	.	.	.	.	.	4D\	.	4D\
! Solo	!	!	!	!	!	!	!	!	!	!
8dd\	.	.	.	.	.	.	.	.	.	.
=37	=37	=37	=37	=37	=37	=37	=37	=37	=37	=37
16bn\LL	.	8bn\L	.	8d/L	.	8G/L	.	1r	.	1r
16g\	.	.	.	.	.	.	.	.	.	.
16b\	.	8b\	.	8d/	.	8G/	.	.	.	.
16dd\JJ	.	.	.	.	.	.	.	.	.	.
16b\LL	.	8b\	.	8d/	.	8G/	.	.	.	.
16g\	.	.	.	.	.	.	.	.	.	.
16b\	.	8b\J	.	8d/J	.	8G/J	.	.	.	.
16dd\JJ	.	.	.	.	.	.	.	.	.	.
16b\LL	.	8b\L	.	8d/L	.	8G/L	.	.	.	.
16f\	.	.	.	.	.	.	.	.	.	.
16b\	.	8b\	.	8d/	.	8G/	.	.	.	.
16dd\JJ	.	.	.	.	.	.	.	.	.	.
16b\LL	.	8b\	.	8d/	.	8G/	.	.	.	.
16f\	.	.	.	.	.	.	.	.	.	.
16b\	.	8b\J	.	8d/J	.	8G/J	.	.	.	.
16dd\JJ	.	.	.	.	.	.	.	.	.	.
=38	=38	=38	=38	=38	=38	=38	=38	=38	=38	=38
4e/	.	4cc\	.	4e/	.	4c\	.	8C\L	.	8C\L
.	.	.	.	.	.	.	.	8C\	.	8C\
!	!	!	!	!	!	!	!	!	!	! **Bnum:._n
4r	.	4r	.	4r	.	4r	.	8G\	.	8G\
.	.	.	.	.	.	.	.	8G\J	.	8G\J
2r	.	2r	.	2r	.	2r	.	8E\L	.	8E\L
.	.	.	.	.	.	.	.	16D\L	.	16D\L
.	.	.	.	.	.	.	.	16E\JJ	.	16E\JJ
.	.	.	.	.	.	.	.	8C\L	.	8C\L
.	.	.	.	.	.	.	.	8G\J	.	8G\J
=39	=39	=39	=39	=39	=39	=39	=39	=39	=39	=39
2r	.	1r	.	1r	.	1r	.	8c\L	.	8c\L
.	.	.	.	.	.	.	.	8c\	.	8c\
.	.	.	.	.	.	.	.	8c\	.	8c\
.	.	.	.	.	.	.	.	8c\J	.	8c\J
4r	.	.	.	.	.	.	.	8Bn\L	.	8Bn\L
.	.	.	.	.	.	.	.	16A\L	.	16A\L
.	.	.	.	.	.	.	.	16B\JJ	.	16B\JJ
8r	.	.	.	.	.	.	.	4G\	.	4G\
! Solo	!	!	!	!	!	!	!	!	!	!
8gg\	.	.	.	.	.	.	.	.	.	.
=40	=40	=40	=40	=40	=40	=40	=40	=40	=40	=40
16ee\LL	.	8g/L	.	8e/L	.	8c\L	.	1r	.	1r
16cc\	.	.	.	.	.	.	.	.	.	.
16ee\	.	8g/	.	8e/	.	8c\	.	.	.	.
16gg\JJ	.	.	.	.	.	.	.	.	.	.
16ee\LL	.	8g/	.	8e/	.	8c\	.	.	.	.
16cc\	.	.	.	.	.	.	.	.	.	.
16ee\	.	8g/J	.	8e/J	.	8c\J	.	.	.	.
16gg\JJ	.	.	.	.	.	.	.	.	.	.
16ee\LL	.	8g/L	.	8e/L	.	8c\L	.	.	.	.
16b-\	.	.	.	.	.	.	.	.	.	.
16ee\	.	8g/	.	8e/	.	8c\	.	.	.	.
16gg\JJ	.	.	.	.	.	.	.	.	.	.
16ee\LL	.	8g/	.	8e/	.	8c\	.	.	.	.
16b-\	.	.	.	.	.	.	.	.	.	.
16ee\	.	8g/J	.	8e/J	.	8c\J	.	.	.	.
16gg\JJ	.	.	.	.	.	.	.	.	.	.
=41	=41	=41	=41	=41	=41	=41	=41	=41	=41	=41
4a/	.	4a/	.	4f/	.	4f\	.	8FF/L	.	8FF/L
.	.	.	.	.	.	.	.	8FF/	.	8FF/
4r	.	4r	.	4r	.	4r	.	8C/	.	8C/
.	.	.	.	.	.	.	.	8C/J	.	8C/J
2r	.	2r	.	2r	.	2r	.	8AA/L	.	8AA/L
.	.	.	.	.	.	.	.	16GG/L	.	16GG/L
.	.	.	.	.	.	.	.	16AA/JJ	.	16AA/JJ
.	.	.	.	.	.	.	.	8FF/L	.	8FF/L
.	.	.	.	.	.	.	.	8C/J	.	8C/J
=42	=42	=42	=42	=42	=42	=42	=42	=42	=42	=42
1r	.	2r	.	2r	.	2r	.	8F\L	.	8F\L
.	.	.	.	.	.	.	.	8F\	.	8F\
.	.	.	.	.	.	.	.	8F\	.	8F\
.	.	.	.	.	.	.	.	8F\J	.	8F\J
.	.	4r	.	4r	.	4r	.	8E\L	.	8E\L
.	.	.	.	.	.	.	.	16D\L	.	16D\L
.	.	.	.	.	.	.	.	16E\JJ	.	16E\JJ
.	.	8r	.	8r	.	8r	.	8C/L	.	8C\L
.	.	8cc\	f	8e/	.	8g\	p	8C/J	.	8c\J
=43	=43	=43	=43	=43	=43	=43	=43	=43	=43	=43
1r	.	8dd\L	.	8f/L	.	8a\L	.	8C/L	.	8c\L
!	!	!	!	!	!	!	!	!	!	! **Bnum:._2
.	.	16ee\L	.	8f/	.	8a\	.	16BB-/L	.	16B-\L
.	.	16ff\JJ	.	.	.	.	.	16AA/JJ	.	16A\JJ
!	!	!	!	!	!	!	!	!	!	! **Bnum:._2
.	.	8gg\L	.	8d/	.	8g\	.	8BB-/L	.	8B-\L
.	.	8gg\J	.	8d/J	.	8g\J	.	8BB-/J	.	8B-\J
!	!	!	!	!	!	!	!	!	!	! **Bnum:._6
.	.	8cc\L	.	4e/	.	8g\L	f	8BB-/L	.	8B-\L
.	.	16dd\L	.	.	.	8g\	.	16AA/L	.	16A\L
.	.	16ee\JJ	.	.	.	.	.	16GG/JJ	.	16G\JJ
!	!	!	!	!	!	!	!	!	!	! **Bnum:._6?
.	.	8ff\L	.	8c/L	.	8f\	.	8AA/L	.	8A\L
.	.	8ff\J	.	8cc/J	.	8f\J	.	8GG/J	.	8F\J
=44	=44	=44	=44	=44	=44	=44	=44	=44	=44	=44
2r	.	16ff\LL	.	16dd\LL	.	8g\L	.	8BB-/L	.	8B-\L
.	.	16ee\	.	16cc\	.	.	.	.	.	.
.	.	16ff\	.	16b-\	.	8g\	.	8GG/	.	8G\
.	.	16gg\JJ	.	16a\JJ	.	.	.	.	.	.
.	.	8.ee\L	.	4g/	.	8c\	.	8C/	.	8c\
.	.	.	.	.	.	8c\J	.	8CC/J	.	8C\J
.	.	16ff\Jk	.	.	.	.	.	.	.	.
16ff\LL	.	8ff\L	p	8a/L	p	8c/L	p	8F\L	p	4F\
16cc\	.	.	.	.	.	.	.	.	.	.
16ff\	.	8a\	.	8f/	.	8c/	.	8F\	.	.
16aa\JJ	.	.	.	.	.	.	.	.	.	.
16ff\LL	.	8a\	.	8f/	.	8c/	.	8F\	.	4r
16cc\	.	.	.	.	.	.	.	.	.	.
16ff\	.	8a\J	.	8f/J	.	8c/J	.	8F\J	.	.
16aa\JJ	.	.	.	.	.	.	.	.	.	.
=45	=45	=45	=45	=45	=45	=45	=45	=45	=45	=45
16ff\LL	.	8g/L	.	8f/L	.	8c/L	.	8C/L	.	1r
16cc\	.	.	.	.	.	.	.	.	.	.
16ff\	.	8g/	.	8f/	.	8c/	.	8C/	.	.
16gg\JJ	.	.	.	.	.	.	.	.	.	.
16ff\LL	.	8g/	.	8f/	.	8c/	.	8C/	.	.
16cc\	.	.	.	.	.	.	.	.	.	.
16ff\	.	8g/J	.	8f/J	.	8c/J	.	8C/J	.	.
16gg\JJ	.	.	.	.	.	.	.	.	.	.
16ee\LL	.	8g/L	.	8e/L	.	8c/L	.	8C/L	.	.
16cc\	.	.	.	.	.	.	.	.	.	.
16ee\	.	8g/	.	8e/	.	8c/	.	8C/	.	.
16gg\JJ	.	.	.	.	.	.	.	.	.	.
16ee\LL	.	8g/	.	8e/	.	8c/	.	8C/	.	.
16cc\	.	.	.	.	.	.	.	.	.	.
16ee\	.	8g/J	.	8e/J	.	8c/J	.	8C/J	.	.
16gg\JJ	.	.	.	.	.	.	.	.	.	.
=46	=46	=46	=46	=46	=46	=46	=46	=46	=46	=46
16ff\LL	.	8f/L	.	8e/L	.	8A/L	.	8D/L	.	1r
16ee\	.	.	.	.	.	.	.	.	.	.
16ff\	.	8f/	.	8e/	.	8A/	.	8D/	.	.
16aa\JJ	.	.	.	.	.	.	.	.	.	.
16ff\LL	.	8f/	.	8e/	.	8A/	.	8D/	.	.
16ee\	.	.	.	.	.	.	.	.	.	.
16ff\	.	8f/J	.	8e/J	.	8A/J	.	8D/J	.	.
16aa\JJ	.	.	.	.	.	.	.	.	.	.
16ff\LL	.	8f/L	.	8d/L	.	8A/L	.	8D/L	.	.
16dd\	.	.	.	.	.	.	.	.	.	.
16ff\	.	8f/	.	8d/	.	8A/	.	8D/	.	.
16aa\JJ	.	.	.	.	.	.	.	.	.	.
16ff\LL	.	8f/	.	8d/	.	8A/	.	8D/	.	.
16dd\	.	.	.	.	.	.	.	.	.	.
16ff\	.	8f/J	.	8d/J	.	8A/J	.	8D/J	.	.
16aa\JJ	.	.	.	.	.	.	.	.	.	.
=47	=47	=47	=47	=47	=47	=47	=47	=47	=47	=47
16ee\LL	.	8e/L	.	8d/L	.	8A/L	.	8A/L	.	1r
16dd\	.	.	.	.	.	.	.	.	.	.
16ee\	.	8e/	.	8d/	.	8A/	.	8AA/	.	.
16aa\JJ	.	.	.	.	.	.	.	.	.	.
16ee\LL	.	8e/	.	8d/	.	8A/	.	8AA/	.	.
16dd\	.	.	.	.	.	.	.	.	.	.
16ee\	.	8e/J	.	8d/J	.	8A/J	.	8AA/J	.	.
16aa\JJ	.	.	.	.	.	.	.	.	.	.
16ee\LL	.	8e/L	.	8c/L	.	8A/L	.	8AA/L	.	.
16cc\	.	.	.	.	.	.	.	.	.	.
16ee\	.	8e/	.	8c/	.	8A/	.	8AA/	.	.
16aa\JJ	.	.	.	.	.	.	.	.	.	.
16ee\LL	.	8e/	.	8c/	.	8A/	.	8AA/	.	.
16cc\	.	.	.	.	.	.	.	.	.	.
16ee\	.	8e/J	.	8c/J	.	8A/J	.	8AA/J	.	.
16aa\JJ	.	.	.	.	.	.	.	.	.	.
=48	=48	=48	=48	=48	=48	=48	=48	=48	=48	=48
16dd\LL	.	8d/L	.	8c/L	.	8d\L	.	8BB-/L	.	1r
16cc\	.	.	.	.	.	.	.	.	.	.
16dd\	.	8d/	.	8c/	.	8d\	.	8BB-/	.	.
16ff\JJ	.	.	.	.	.	.	.	.	.	.
16dd\LL	.	8d/	.	8c/	.	8d\	.	8BB-/	.	.
16cc\	.	.	.	.	.	.	.	.	.	.
16dd\	.	8d/J	.	8c/J	.	8d\J	.	8BB-/J	.	.
16ff\JJ	.	.	.	.	.	.	.	.	.	.
16dd\LL	.	8d/L	.	8B-/L	.	8d\L	.	8BB-/L	.	.
16b-\	.	.	.	.	.	.	.	.	.	.
16dd\	.	8d/	.	8B-/	.	8d\	.	8BB-/	.	.
16ff\JJ	.	.	.	.	.	.	.	.	.	.
16dd\LL	.	8d/	.	8B-/	.	8d\	.	8BB-/	.	.
16b-\	.	.	.	.	.	.	.	.	.	.
16dd\	.	8d/J	.	8B-/J	.	8d\J	.	8BB-/J	.	.
16ff\JJ	.	.	.	.	.	.	.	.	.	.
=49	=49	=49	=49	=49	=49	=49	=49	=49	=49	=49
16cc\LL	.	8c/L	.	8B-/L	.	8f\L	.	8F\L	.	1r
16b-\	.	.	.	.	.	.	.	.	.	.
16cc\	.	8c/	.	8B-/	.	8f\	.	8F\	.	.
16ff\JJ	.	.	.	.	.	.	.	.	.	.
16cc\LL	.	8c/	.	8B-/	.	8f\	.	8F\	.	.
16b-\	.	.	.	.	.	.	.	.	.	.
16cc\	.	8c/J	.	8B-/J	.	8f\J	.	8F\J	.	.
16ff\JJ	.	.	.	.	.	.	.	.	.	.
16cc\LL	.	8c/L	.	8A/L	.	8f\L	.	8F\L	.	.
16a\	.	.	.	.	.	.	.	.	.	.
16cc\	.	8c/	.	8A/	.	8f\	.	8F\	.	.
16ff\JJ	.	.	.	.	.	.	.	.	.	.
16cc\LL	.	8c/	.	8A/	.	8f\	.	8F\	.	.
16a\	.	.	.	.	.	.	.	.	.	.
16cc\	.	8c/J	.	8A/J	.	8f\J	.	8F\J	.	.
16ff\JJ	.	.	.	.	.	.	.	.	.	.
=50	=50	=50	=50	=50	=50	=50	=50	=50	=50	=50
*^	*	*	*	*	*	*	*	*	*	*
! Arpeggio	!	!	!	!	!	!	!	!	!	!	!
!	!	!	!	!	!	!	!	!	!	!	!
2ff/ 2b-/	2g\	.	8B-/L	.	8A/L	.	8B-/L	.	8G\L	.	1r
.	.	.	8B-/	.	8A/	.	8B-/	.	8G\	.	.
.	.	.	8B-/	.	8A/	.	8B-/	.	8G\	.	.
.	.	.	8B-/J	.	8A/J	.	8B-/J	.	8G\J	.	.
2ee/ 2b-/	2g\	.	8B-/L	.	8G/L	.	8c/L	.	8C/L	.	.
.	.	.	8B-/	.	8G/	.	8c/	.	8C/	.	.
.	.	.	8B-/	.	8G/	.	8c/	.	8C/	.	.
.	.	.	8B-/J	.	8G/J	.	8c/J	.	8C/J	.	.
=51	=51	=51	=51	=51	=51	=51	=51	=51	=51	=51	=51
2ff/ 2cc/	2a\	.	8A-/L	.	8A-/L	.	8f\L	.	8C/L	.	1r
.	.	.	8A-/	.	8A-/	.	8f\	.	8C/	.	.
.	.	.	8A-/	.	8A-/	.	8f\	.	8C/	.	.
.	.	.	8A-/J	.	8A-/J	.	8f\J	.	8C/J	.	.
2ff/ 2b-/	2g\	.	8A-/L	.	8B-/L	.	8f\L	.	8C/L	.	.
.	.	.	8A-/	.	8B-/	.	8f\	.	8C/	.	.
.	.	.	8A-/	.	8B-/	.	8f\	.	8C/	.	.
.	.	.	8A-/J	.	8B-/J	.	8f\J	.	8C/J	.	.
=52	=52	=52	=52	=52	=52	=52	=52	=52	=52	=52	=52
2ee/ 2b-/	2g\	.	8G/L	.	8B-/L	.	8e\L	.	8C/L	.	2r
.	.	.	8G/	.	8B-/	.	8e\	.	8C/	.	.
.	.	.	8c/	.	8B-/	.	8e\	.	8C/	.	.
.	.	.	8c/J	.	8B-/J	.	8e\J	.	8C/J	.	.
2ryy	4ff\	.	4c/	.	4A/	.	4c\	.	4F\	.	4r
.	4r	.	8r	.	8r	.	8r	.	8r	.	8r
.	.	.	8c/	f	8c/	.	8c\	f	8C/	.	8C/
=53	=53	=53	=53	=53	=53	=53	=53	=53	=53	=53	=53
*v	*v	*	*	*	*	*	*	*	*	*	*
!	!	!	!	!	!	!	!	!	!	! **Bnum:._7
1r	.	8d/L	.	8d/L	f	8d\L	.	8D\L	.	8D\L
.	.	16e/L	.	16e/L	.	16e\L	.	16E\L	.	16E\L
.	.	16f/JJ	.	16f/JJ	.	16f\JJ	.	16F\JJ	.	16F\JJ
.	.	8g/L	.	8g/L	.	8g\L	.	8G\L	.	8G\L
.	.	8g/J	.	8g/J	.	8g\J	.	8G\J	.	8G\J
.	.	8c/L	.	8c/L	.	8c\L	.	8C\L	.	8C\L
.	.	16d/L	.	16d/L	.	16d\L	.	16D\L	.	16D\L
.	.	16e/JJ	.	16e/JJ	.	16e\JJ	.	16E\JJ	.	16E\JJ
.	.	8f/L	.	8f/L	.	8f\L	.	8F\L	.	8F\L
.	.	8a/J	.	8a/J	.	8a\J	.	8A\J	.	8A\J
=54	=54	=54	=54	=54	=54	=54	=54	=54	=54	=54
1r	.	8b-/L	.	8b-/L	.	8b-\L	.	8B-\L	.	8B-\L
.	.	8g/	.	8g/J	.	8g\	.	8G\	.	8G\
.	.	8cc/	.	8cc/L	.	8cc\	.	8c\	.	8c\
.	.	8c/J	.	8c/J	.	8c\J	.	8C\J	.	8C\J
.	.	4f;/	.	4f/	.	4f\	.	4F\	.	4F\
.	.	4r	.	4r	.	4r	.	4r;	.	4r;
==|!	==|!	==|!	==|!	==|!	==|!	==|!	==|!	==|!	==|!	==|!
*-	*-	*-	*-	*-	*-	*-	*-	*-	*-	*-
!!!RWG: Key is interpreted using the Humdrum key tool.
!!!AFT: stage2
!!!END: 1998/05/22/
!!format changes:
!!content changes:
!!public access: complete
!!!KEY: 3787570949
!!!EMD: Converted from MuseData to Humdrum Dec 16, 2000, by Andreas Kornstaedt using muse2kern.
